X: 29959
T: Oak Tree, The
R: reel
M: 4/4
K: Dmajor
AG|:FD D2 AD D2|FGAF GEFD|E3F GEFD|EDEF GFEG|
FD D2 AD D2|FGAF GEFd|cdef geag|1 fdec dBAG:|2 fdec d3e||
|:fB B2 fage|fB B2 afed|cAeA fAeA|cAcd efge|
fB B2 fage|fB B2 afed|cdeg faec|1 d2dc d3e:|2 d2dc d3A||
d2 fd Adfd|c2 ec Acec|d2 fd Adef|gfge dcBA|
d2 fd Adfd|c2 ec Acef|gfge dcBA|cdec dBAG||

